X:84
T:Life Guards March,The,2parts. TLY.084
M:4/4
L:1/8
Q:1/2=80
S:Wm.Tildesley,Swinton,Lancs.1860s.
R:.March
O:England.
A:Lancashire.
D:1860.
Z:vmp.Taz Tarry.
K:G
[V:1]|:D2| G2 GG GBAc| B2BB Bdce| dgfe dcBA| G2 GG G2 D2|!
[V:2]|:z2| z4 z2 D2|G2 GG GBAc|Bedc BAGF|G2GGG2 z2|!
%
[V:1]G2 GG GBAc| B2BB Bdce|dgfe dcBA| G2GGG2:|!
[V:2]z4 z2 D2|G2 GG GBAc|Bedc BAGF|G2GGG2:|!
%
[V:1]|:Bc|d2dd dgfe| d2dd d2 Bc| d2 dd dgfe| d2 dd d2 Bc|!
[V:2]|:z2|B2BB B2 AG| F2FF F2GA|\
B2BB B2 AG| F2 FFF2 GA|!
%
[V:1]dBGB dBGB| cAFA cAFA| BGDG BGDG| A2AA A2 D2|!
[V:2]BGGB BGGB| AFFA AFFA|GDDG GDDG |\
F2 FFF2 z2|!
%
[V:1]G2GG GBAc| B2BB Bdce| dgfe dcBA|G2 GG G2:|
[V:2]z4 z2 D2|G2 GG GBAc|Bedc BAGF|G2GGG2:|
